X:221
T:Sarah Armstrong's Tune Harmony
L:1/8
M:C
K:D
|:FE|"D"D2F2"G"D2G2|"D"F2FG AGFG|"A"A2c2 "D"A2d2|"A"c2cd edcA|
"D"D2F2"G"D2G2|"D"F2FG AGFc|Accd c2cd|"A"cBAG"D"F2:|
|:(3cde|"D"f2fe fdAF|"A"A3A AABc|"G"d2de dBAG|"D"Ff2e fcde|
"D"f2fe fdAF|"A"A3A AABc|"G"d2de dcAF|"D"DF2F DF:|
